public/flags/4.svg

<svg width="40" height="40" viewBox="0 0 40 40" fill="none" xmlns="http://www.w3.org/2000/svg">
<ellipse cx="19.9977" cy="20" rx="19.9977" ry="20" fill="white"/>
<path d="M29.6109 4.55661C26.8969 2.86049 23.6519 1.86621 20.1709 1.86621C16.6899 1.86621 13.4449 2.86049 10.731 4.55661V34.2095C13.4449 35.9057 16.6899 36.8999 20.1709 36.8999C23.6519 36.8999 26.8969 35.9057 29.6109 34.2095V4.55661Z" fill="#F9F9F9"/>
<path d="M29.6074 4.55664V34.2096C34.5634 31.1682 37.8674 25.5535 37.8674 19.3539C37.8674 13.1542 34.5634 7.65645 29.6074 4.55664Z" fill="#D90026"/>
<path d="M10.7238 4.55664C5.76785 7.65645 2.46387 13.2712 2.46387 19.4123C2.46387 25.5535 5.76785 31.1682 10.7238 34.2681V4.55664Z" fill="#D90026"/>
<path d="M26.5998 19.1789C26.3638 19.062 26.3048 18.828 26.3638 18.711L26.9538 16.6055L24.8888 17.0149C24.8298 17.0149 24.5938 17.0149 24.5348 16.6055L24.3578 15.9037L22.9418 17.5413C22.9418 17.5413 21.9978 18.5356 22.2928 17.0149L22.8828 13.7981L21.7618 14.383C21.7028 14.383 21.4668 14.4415 21.1718 13.8566L20.1688 11.8096L19.1068 13.7396C18.8118 14.3245 18.5758 14.266 18.5168 14.266L17.3958 13.6812L17.9858 16.8979C18.2808 18.4186 17.3368 17.4243 17.3368 17.4243L15.9209 15.7867L15.7439 16.4885C15.6259 16.8979 15.4489 16.8979 15.3899 16.8979L13.3249 16.4885L13.9149 18.5941C13.9149 18.7695 13.9149 18.945 13.6789 19.062L13.0889 19.4129C13.0889 19.4129 15.4489 21.2845 16.2159 21.9278C16.3929 22.0448 16.7468 22.3957 16.6288 22.8051L16.3339 23.624L19.5788 23.1561C19.7558 23.1561 20.1098 23.1561 20.0508 23.6824L19.8738 27.0162H20.4638L20.2868 23.6824C20.2868 23.1561 20.6408 23.1561 20.7588 23.1561L24.0038 23.624L23.7088 22.8051C23.5908 22.3957 23.9448 22.0448 24.1218 21.9278C24.8888 21.2845 27.2488 19.4129 27.2488 19.4129L26.5998 19.1789Z" fill="#D90026"/>
</svg>

<svg xmlns="http://www.w3.org/2000/svg" width="40" height="40" fill="none" viewBox="0 0 40 40"><ellipse cx="19.998" cy="20" fill="#fff" rx="19.998" ry="20"/><path fill="#f9f9f9" d="M29.61 4.557a17.8 17.8 0 0 0-9.44-2.69 17.8 17.8 0 0 0-9.439 2.69V34.21a17.8 17.8 0 0 0 9.44 2.69 17.8 17.8 0 0 0 9.44-2.69z"/><path fill="#d90026" d="M29.607 4.557V34.21c4.956-3.042 8.26-8.657 8.26-14.856 0-6.2-3.304-11.698-8.26-14.797m-18.883 0c-4.956 3.1-8.26 8.714-8.26 14.855 0 6.142 3.304 11.756 8.26 14.856zM26.6 19.179c-.236-.117-.295-.351-.236-.468l.59-2.105-2.065.409c-.06 0-.295 0-.354-.41l-.177-.701-1.416 1.637s-.944.995-.65-.526l.59-3.217-1.12.585c-.06 0-.295.059-.59-.526l-1.003-2.047-1.062 1.93c-.295.585-.531.526-.59.526l-1.121-.585.59 3.217c.295 1.52-.65.526-.65.526l-1.415-1.637-.177.701c-.118.41-.295.41-.354.41l-2.065-.41.59 2.106c0 .175 0 .351-.236.468l-.59.35s2.36 1.873 3.127 2.516c.177.117.53.468.413.877l-.295.819 3.245-.468c.177 0 .53 0 .472.526l-.177 3.334h.59l-.177-3.334c0-.526.354-.526.472-.526l3.245.468-.295-.819c-.118-.41.236-.76.413-.877.767-.643 3.127-2.515 3.127-2.515z"/></svg>
